X:1020
T:Road to Durham, The
R:jig
C:Armin Barnett
Z:transcribed by Dave Marshall
M:6/8
K:Dmix
|: FAA ABd | BAG AGE | ~G3 GAB | AGE E2D |
FAA ABd | BAG AGE | DED F2A | GEA D3 :|
|: A3 ABc | ded ~B3 | ~G3 ~B3 | AGE E2D |
A3 ABc | ded AGE | DED F2A | GEA D3 :|
